X:1
T:Title
%%score { 1 | ( 2 3 4 ) }
L:1/8
M:3/4
K:D
V:1 treble nm="Grand Piano"
V:2 bass 
V:3 bass 
V:4 bass 
V:1
 z2 z2[Q:1/4=100] [A,F]>F | F3 D G>F | F2 D2 (3DEF | [B,G]3 B A>G | F4 D>D | %5
 (9:8:8[G,E]3/4- [G,E]2- [G,E]/4^D3/4E3/4 [G,E]3/4D3/4E3/4 | [A,F]2 D2 D>D | %7
 (9:8:8[G,E]3/4- [G,E]2- [G,E]/4^D3/4E3/4 E3/4G3/4F3/4 | D4 [FA]>[FA] | [Af]3 [Ge] (3ed[DGB] | %10
 [DFA]2 [DF]2 [Fd]>[B,GB] | [DFA]3 [A,DF] [A,CE]>[DF] | [CEG]4 [A,DF]>[A,FA] | %13
 [Af]3 [Ge] (3ed[DGB] | [DFA]2 [DF]2 [Fd]>[B,GB] | [DFA]3[K:bass] [F,D] [A,DF]>[G,CE] | %16
[M:2/4] [F,D]4 |] %17
V:2
 z2 z2 z z/ A,/ | A,3 F, B,>A, | A,2 F,2 (3F,G,A, | z2 z D C>B, | [D,A,]4 F,>F, | %5
 (9:8:8A,,3/4- A,,2- A,,/4-[A,,-F,]3/4[A,,G,]3/4 A,,3/4-[A,,-F,]3/4[A,,G,]3/4 | z2 F,2 F,>F, | %7
 (9:8:8z3/4 z3/4 z3/2 F,3/4G,3/4 G,3/4B,3/4A,3/4 | [D,F,]4 [D,A,]>[D,A,] | %9
 [D,D]3 [D,C] (3:2:2[G,B,G]2 G,, | z2 A,2 [D,A,]>D, | D,3 D, A,,>A,, | A,,4 D,>D, | %13
 [D,D]3 [D,C] (3:2:2[G,B,G]2 G,, | z2 A,2 [D,A,]>D, | D,3 D, A,,>A,, |[M:2/4] D,4 |] %17
V:3
 z2 z2 D,2- | D,6- | D,6- | D,6 | x6 | x6 | D,6 | A,,6 | x6 | x6 | D,4 z2 | x6 | x6 | x6 | D,4 z2 | %15
 x6 |[M:2/4] x4 |] %17
V:4
 x6 | x6 | x6 | G,,6 | x6 | x6 | x6 | x6 | x6 | x6 | x6 | x6 | x6 | x6 | x6 | x6 |[M:2/4] x4 |] %17

